img/Group 47.svg

<?xml version="1.0" encoding="UTF-8" standalone="no"?>
<svg
   xmlns:dc="http://purl.org/dc/elements/1.1/"
   xmlns:cc="http://creativecommons.org/ns#"
   xmlns:rdf="http://www.w3.org/1999/02/22-rdf-syntax-ns#"
   xmlns:svg="http://www.w3.org/2000/svg"
   xmlns="http://www.w3.org/2000/svg"
   xmlns:sodipodi="http://sodipodi.sourceforge.net/DTD/sodipodi-0.dtd"
   xmlns:inkscape="http://www.inkscape.org/namespaces/inkscape"
   width="118.7mm"
   height="133.08176mm"
   viewBox="0 0 118.7 133.08176"
   version="1.1"
   id="svg134"
   inkscape:version="1.0.2-2 (e86c870879, 2021-01-15)"
   sodipodi:docname="Group 47.svg">
  <defs
     id="defs128" />
  <sodipodi:namedview
     id="base"
     pagecolor="#ffffff"
     bordercolor="#666666"
     borderopacity="1.0"
     inkscape:pageopacity="0.0"
     inkscape:pageshadow="2"
     inkscape:zoom="0.35"
     inkscape:cx="404.31495"
     inkscape:cy="554.35023"
     inkscape:document-units="mm"
     inkscape:current-layer="layer1"
     inkscape:document-rotation="0"
     showgrid="false"
     inkscape:window-width="1710"
     inkscape:window-height="1032"
     inkscape:window-x="32"
     inkscape:window-y="0"
     inkscape:window-maximized="0" />
  <metadata
     id="metadata131">
    <rdf:RDF>
      <cc:Work
         rdf:about="">
        <dc:format>image/svg+xml</dc:format>
        <dc:type
           rdf:resource="http://purl.org/dc/dcmitype/StillImage" />
        <dc:title></dc:title>
      </cc:Work>
    </rdf:RDF>
  </metadata>
  <g
     inkscape:label="Слой 1"
     inkscape:groupmode="layer"
     id="layer1"
     transform="translate(1.1416649,-1.494834)">
    <g
       style="fill:none"
       id="g150"
       transform="matrix(0.26458333,0,0,0.26458333,-1.1416564,1.494764)">
      <path
         d="m 419.169,220.82 c 5,196.55 -115,173.725 -197.501,218.107 C -70.3315,624.064 10.1683,358.877 10.1683,260.13 10.1683,39.4875 158.669,115.994 221.668,81.3336 561.168,-128.319 419.169,122.074 419.169,220.82 Z"
         fill="#ea43e3"
         id="path136" />
      <path
         d="m 92.2,279.956 c -0.6,0 -1.0833,-0.184 -1.45,-0.55 -0.3333,-0.334 -0.5,-0.8 -0.5,-1.4 v -8.3 c 0,-0.6 0.1667,-1.067 0.5,-1.4 0.3667,-0.367 0.85,-0.55 1.45,-0.55 h 1.7 l 14.05,-34.05 c 0.4,-0.9 1.017,-1.35 1.85,-1.35 0.9,0 1.533,0.45 1.9,1.35 l 14.05,34.05 h 1.85 c 0.6,0 1.067,0.183 1.4,0.55 0.367,0.333 0.55,0.8 0.55,1.4 v 8.3 c 0,0.6 -0.183,1.066 -0.55,1.4 -0.333,0.366 -0.8,0.55 -1.4,0.55 -0.6,0 -1.083,-0.184 -1.45,-0.55 -0.333,-0.334 -0.5,-0.8 -0.5,-1.4 v -6.6 h -31.5 v 6.6 c 0,0.6 -0.1833,1.066 -0.55,1.4 -0.3333,0.366 -0.8,0.55 -1.4,0.55 z m 5.7,-12.2 h 23.95 l -12.05,-29.45 z m 49.297,3.95 c -2.367,0 -4.483,-0.484 -6.35,-1.45 -1.867,-1 -3.35,-2.45 -4.45,-4.35 -1.067,-1.9 -1.6,-4.217 -1.6,-6.95 v -13 c 0,-0.534 0.183,-0.984 0.55,-1.35 0.367,-0.367 0.817,-0.55 1.35,-0.55 0.567,0 1.033,0.183 1.4,0.55 0.367,0.366 0.55,0.816 0.55,1.35 v 13 c 0,3.066 0.85,5.35 2.55,6.85 1.7,1.5 3.833,2.25 6.4,2.25 1.633,0 3.1,-0.317 4.4,-0.95 1.333,-0.634 2.383,-1.5 3.15,-2.6 0.767,-1.1 1.15,-2.35 1.15,-3.75 v -14.8 c 0,-0.567 0.167,-1.017 0.5,-1.35 0.367,-0.367 0.833,-0.55 1.4,-0.55 0.567,0 1.033,0.183 1.4,0.55 0.367,0.333 0.55,0.783 0.55,1.35 v 23.5 c 0,0.6 -0.183,1.083 -0.55,1.45 -0.367,0.333 -0.833,0.5 -1.4,0.5 -0.567,0 -1.033,-0.167 -1.4,-0.5 -0.333,-0.367 -0.5,-0.85 -0.5,-1.45 v -1.7 c -1.1,1.233 -2.433,2.2 -4,2.9 -1.567,0.7 -3.267,1.05 -5.1,1.05 z m 30.588,0.15 c -2.167,0 -4.217,-0.417 -6.15,-1.25 -1.934,-0.867 -3.384,-1.934 -4.35,-3.2 -0.334,-0.434 -0.467,-0.9 -0.4,-1.4 0.1,-0.5 0.4,-0.9 0.9,-1.2 0.366,-0.234 0.8,-0.284 1.3,-0.15 0.533,0.1 0.966,0.333 1.3,0.7 0.833,0.866 1.883,1.583 3.15,2.15 1.266,0.566 2.666,0.85 4.2,0.85 2,0 3.616,-0.417 4.85,-1.25 1.266,-0.834 1.9,-2.017 1.9,-3.55 0,-1.334 -0.5,-2.45 -1.5,-3.35 -0.967,-0.9 -2.184,-1.384 -3.65,-1.45 h -2.55 c -0.634,0 -1.15,-0.15 -1.55,-0.45 -0.4,-0.334 -0.6,-0.734 -0.6,-1.2 0,-0.467 0.2,-0.85 0.6,-1.15 0.4,-0.3 0.916,-0.45 1.55,-0.45 h 2.55 c 1.233,-0.034 2.233,-0.45 3,-1.25 0.766,-0.8 1.15,-1.784 1.15,-2.95 0,-1.2 -0.534,-2.184 -1.6,-2.95 -1.034,-0.767 -2.434,-1.15 -4.2,-1.15 -1.634,0 -3,0.266 -4.1,0.8 -1.1,0.533 -1.984,1.216 -2.65,2.05 -0.367,0.4 -0.8,0.65 -1.3,0.75 -0.467,0.066 -0.917,-0.034 -1.35,-0.3 -0.434,-0.234 -0.684,-0.6 -0.75,-1.1 -0.034,-0.5 0.116,-0.967 0.45,-1.4 1.066,-1.234 2.416,-2.267 4.05,-3.1 1.666,-0.834 3.533,-1.25 5.6,-1.25 1.866,0 3.516,0.333 4.95,1 1.466,0.633 2.616,1.516 3.45,2.65 0.833,1.1 1.25,2.333 1.25,3.7 0,1.4 -0.45,2.633 -1.35,3.7 -0.867,1.033 -2,1.783 -3.4,2.25 1.7,0.333 3.083,1.116 4.15,2.35 1.066,1.233 1.6,2.683 1.6,4.35 0,1.566 -0.467,2.966 -1.4,4.2 -0.9,1.233 -2.15,2.216 -3.75,2.95 -1.567,0.7 -3.35,1.05 -5.35,1.05 z m 29.083,-0.2 c -2.566,0 -4.866,-0.6 -6.9,-1.8 -2.033,-1.234 -3.65,-2.9 -4.85,-5 -1.166,-2.1 -1.75,-4.467 -1.75,-7.1 0,-2.667 0.6,-5.05 1.8,-7.15 1.234,-2.1 2.9,-3.75 5,-4.95 2.1,-1.234 4.467,-1.85 7.1,-1.85 2.634,0 4.984,0.616 7.05,1.85 2.1,1.2 3.75,2.85 4.95,4.95 1.234,2.1 1.867,4.483 1.9,7.15 v 11.75 c 0,0.566 -0.183,1.033 -0.55,1.4 -0.366,0.333 -0.833,0.5 -1.4,0.5 -0.566,0 -1.033,-0.167 -1.4,-0.5 -0.366,-0.367 -0.55,-0.834 -0.55,-1.4 v -3.05 c -1.133,1.6 -2.6,2.866 -4.4,3.8 -1.8,0.933 -3.8,1.4 -6,1.4 z m 0.4,-3.5 c 1.934,0 3.65,-0.45 5.15,-1.35 1.534,-0.9 2.734,-2.134 3.6,-3.7 0.9,-1.6 1.35,-3.384 1.35,-5.35 0,-2 -0.45,-3.784 -1.35,-5.35 -0.866,-1.567 -2.066,-2.8 -3.6,-3.7 -1.5,-0.934 -3.216,-1.4 -5.15,-1.4 -1.9,0 -3.616,0.466 -5.15,1.4 -1.533,0.9 -2.75,2.133 -3.65,3.7 -0.9,1.566 -1.35,3.35 -1.35,5.35 0,1.966 0.45,3.75 1.35,5.35 0.9,1.566 2.117,2.8 3.65,3.7 1.534,0.9 3.25,1.35 5.15,1.35 z m 33.288,3.55 c -2.366,0 -4.483,-0.484 -6.35,-1.45 -1.866,-1 -3.35,-2.45 -4.45,-4.35 -1.066,-1.9 -1.6,-4.217 -1.6,-6.95 v -13 c 0,-0.534 0.184,-0.984 0.55,-1.35 0.367,-0.367 0.817,-0.55 1.35,-0.55 0.567,0 1.034,0.183 1.4,0.55 0.367,0.366 0.55,0.816 0.55,1.35 v 13 c 0,3.066 0.85,5.35 2.55,6.85 1.7,1.5 3.834,2.25 6.4,2.25 1.634,0 3.1,-0.317 4.4,-0.95 1.334,-0.634 2.384,-1.5 3.15,-2.6 0.767,-1.1 1.15,-2.35 1.15,-3.75 v -14.8 c 0,-0.567 0.167,-1.017 0.5,-1.35 0.367,-0.367 0.834,-0.55 1.4,-0.55 0.567,0 1.034,0.183 1.4,0.55 0.367,0.333 0.55,0.783 0.55,1.35 v 23.5 c 0,0.6 -0.183,1.083 -0.55,1.45 -0.366,0.333 -0.833,0.5 -1.4,0.5 -0.566,0 -1.033,-0.167 -1.4,-0.5 -0.333,-0.367 -0.5,-0.85 -0.5,-1.45 v -1.7 c -1.1,1.233 -2.433,2.2 -4,2.9 -1.566,0.7 -3.266,1.05 -5.1,1.05 z m 0.55,-31.2 c -1.633,0 -3.1,-0.267 -4.4,-0.8 -1.3,-0.567 -2.333,-1.334 -3.1,-2.3 -0.733,-0.967 -1.1,-2.05 -1.1,-3.25 0,-0.534 0.167,-0.984 0.5,-1.35 0.367,-0.367 0.8,-0.55 1.3,-0.55 0.534,0 0.967,0.183 1.3,0.55 0.334,0.366 0.5,0.866 0.5,1.5 0,0.933 0.484,1.683 1.45,2.25 0.967,0.566 2.15,0.85 3.55,0.85 1.434,0 2.617,-0.284 3.55,-0.85 0.967,-0.567 1.45,-1.317 1.45,-2.25 0,-0.634 0.167,-1.134 0.5,-1.5 0.367,-0.367 0.8,-0.55 1.3,-0.55 0.534,0 0.967,0.183 1.3,0.55 0.334,0.366 0.5,0.816 0.5,1.35 0,1.2 -0.383,2.283 -1.15,3.25 -0.733,0.966 -1.75,1.733 -3.05,2.3 -1.3,0.533 -2.766,0.8 -4.4,0.8 z m 23.288,30.9 c -0.567,0 -1.033,-0.167 -1.4,-0.5 -0.333,-0.367 -0.5,-0.85 -0.5,-1.45 v -23.45 c 0,-0.6 0.167,-1.067 0.5,-1.4 0.367,-0.367 0.833,-0.55 1.4,-0.55 0.567,0 1.017,0.183 1.35,0.55 0.367,0.333 0.55,0.8 0.55,1.4 v 9.9 h 17.65 v -9.9 c 0,-0.6 0.183,-1.067 0.55,-1.4 0.367,-0.367 0.833,-0.55 1.4,-0.55 0.567,0 1.017,0.183 1.35,0.55 0.333,0.333 0.5,0.8 0.5,1.4 v 23.45 c 0,0.6 -0.167,1.083 -0.5,1.45 -0.333,0.333 -0.783,0.5 -1.35,0.5 -0.567,0 -1.033,-0.167 -1.4,-0.5 -0.367,-0.367 -0.55,-0.85 -0.55,-1.45 v -10.1 h -17.65 v 10.1 c 0,0.6 -0.183,1.083 -0.55,1.45 -0.333,0.333 -0.783,0.5 -1.35,0.5 z m 44.729,0.25 c -2.7,0 -5.1,-0.584 -7.2,-1.75 -2.067,-1.2 -3.7,-2.85 -4.9,-4.95 -1.167,-2.1 -1.75,-4.5 -1.75,-7.2 0,-2.734 0.55,-5.134 1.65,-7.2 1.133,-2.1 2.683,-3.75 4.65,-4.95 1.966,-1.2 4.233,-1.8 6.8,-1.8 2.533,0 4.733,0.583 6.6,1.75 1.9,1.133 3.366,2.716 4.4,4.75 1.033,2.033 1.55,4.35 1.55,6.95 0,0.533 -0.167,0.966 -0.5,1.3 -0.334,0.3 -0.767,0.45 -1.3,0.45 h -20.2 c 0.2,1.8 0.75,3.4 1.65,4.8 0.9,1.366 2.083,2.45 3.55,3.25 1.466,0.766 3.133,1.15 5,1.15 1.2,0 2.4,-0.2 3.6,-0.6 1.233,-0.434 2.216,-0.967 2.95,-1.6 0.366,-0.3 0.783,-0.45 1.25,-0.45 0.466,-0.034 0.866,0.083 1.2,0.35 0.433,0.4 0.65,0.833 0.65,1.3 0.033,0.466 -0.15,0.866 -0.55,1.2 -1.1,0.933 -2.5,1.716 -4.2,2.35 -1.7,0.6 -3.334,0.9 -4.9,0.9 z m -0.75,-24.4 c -2.567,0 -4.684,0.8 -6.35,2.4 -1.667,1.566 -2.667,3.616 -3,6.15 h 18.3 c -0.267,-2.534 -1.2,-4.584 -2.8,-6.15 -1.567,-1.6 -3.617,-2.4 -6.15,-2.4 z m 21.013,35.85 c -0.6,0 -1.084,-0.184 -1.45,-0.55 -0.334,-0.334 -0.5,-0.8 -0.5,-1.4 v -23.6 c 0.033,-2.6 0.65,-4.934 1.85,-7 1.233,-2.1 2.883,-3.75 4.95,-4.95 2.1,-1.2 4.45,-1.8 7.05,-1.8 2.666,0 5.05,0.616 7.15,1.85 2.1,1.2 3.75,2.85 4.95,4.95 1.233,2.1 1.85,4.483 1.85,7.15 0,2.633 -0.6,5 -1.8,7.1 -1.167,2.1 -2.767,3.766 -4.8,5 -2.034,1.2 -4.334,1.8 -6.9,1.8 -2.234,0 -4.267,-0.467 -6.1,-1.4 -1.8,-0.967 -3.25,-2.234 -4.35,-3.8 v 14.7 c 0,0.6 -0.184,1.066 -0.55,1.4 -0.334,0.366 -0.784,0.55 -1.35,0.55 z m 11.9,-14.95 c 1.933,0 3.666,-0.45 5.2,-1.35 1.533,-0.9 2.733,-2.134 3.6,-3.7 0.9,-1.6 1.35,-3.384 1.35,-5.35 0,-2 -0.45,-3.784 -1.35,-5.35 -0.867,-1.567 -2.067,-2.8 -3.6,-3.7 -1.534,-0.934 -3.267,-1.4 -5.2,-1.4 -1.9,0 -3.617,0.466 -5.15,1.4 -1.534,0.9 -2.734,2.133 -3.6,3.7 -0.867,1.566 -1.3,3.35 -1.3,5.35 0,1.966 0.433,3.75 1.3,5.35 0.866,1.566 2.066,2.8 3.6,3.7 1.533,0.9 3.25,1.35 5.15,1.35 z"
         fill="#ffffff"
         id="path138" />
    </g>
  </g>
</svg>

<svg width="449" height="503" viewBox="0 0 449 503" fill="none" xmlns="http://www.w3.org/2000/svg">
<path d="M419.169 220.82C424.169 417.37 304.169 394.545 221.668 438.927C-70.3315 624.064 10.1683 358.877 10.1683 260.13C10.1683 39.4875 158.669 115.994 221.668 81.3336C561.168 -128.319 419.169 122.074 419.169 220.82Z" fill="#EA43E3"/>
<path d="M92.2 279.956C91.6 279.956 91.1167 279.772 90.75 279.406C90.4167 279.072 90.25 278.606 90.25 278.006V269.706C90.25 269.106 90.4167 268.639 90.75 268.306C91.1167 267.939 91.6 267.756 92.2 267.756H93.9L107.95 233.706C108.35 232.806 108.967 232.356 109.8 232.356C110.7 232.356 111.333 232.806 111.7 233.706L125.75 267.756H127.6C128.2 267.756 128.667 267.939 129 268.306C129.367 268.639 129.55 269.106 129.55 269.706V278.006C129.55 278.606 129.367 279.072 129 279.406C128.667 279.772 128.2 279.956 127.6 279.956C127 279.956 126.517 279.772 126.15 279.406C125.817 279.072 125.65 278.606 125.65 278.006V271.406H94.15V278.006C94.15 278.606 93.9667 279.072 93.6 279.406C93.2667 279.772 92.8 279.956 92.2 279.956ZM97.9 267.756H121.85L109.8 238.306L97.9 267.756ZM147.197 271.706C144.83 271.706 142.714 271.222 140.847 270.256C138.98 269.256 137.497 267.806 136.397 265.906C135.33 264.006 134.797 261.689 134.797 258.956V245.956C134.797 245.422 134.98 244.972 135.347 244.606C135.714 244.239 136.164 244.056 136.697 244.056C137.264 244.056 137.73 244.239 138.097 244.606C138.464 244.972 138.647 245.422 138.647 245.956V258.956C138.647 262.022 139.497 264.306 141.197 265.806C142.897 267.306 145.03 268.056 147.597 268.056C149.23 268.056 150.697 267.739 151.997 267.106C153.33 266.472 154.38 265.606 155.147 264.506C155.914 263.406 156.297 262.156 156.297 260.756V245.956C156.297 245.389 156.464 244.939 156.797 244.606C157.164 244.239 157.63 244.056 158.197 244.056C158.764 244.056 159.23 244.239 159.597 244.606C159.964 244.939 160.147 245.389 160.147 245.956V269.456C160.147 270.056 159.964 270.539 159.597 270.906C159.23 271.239 158.764 271.406 158.197 271.406C157.63 271.406 157.164 271.239 156.797 270.906C156.464 270.539 156.297 270.056 156.297 269.456V267.756C155.197 268.989 153.864 269.956 152.297 270.656C150.73 271.356 149.03 271.706 147.197 271.706ZM177.785 271.856C175.618 271.856 173.568 271.439 171.635 270.606C169.701 269.739 168.251 268.672 167.285 267.406C166.951 266.972 166.818 266.506 166.885 266.006C166.985 265.506 167.285 265.106 167.785 264.806C168.151 264.572 168.585 264.522 169.085 264.656C169.618 264.756 170.051 264.989 170.385 265.356C171.218 266.222 172.268 266.939 173.535 267.506C174.801 268.072 176.201 268.356 177.735 268.356C179.735 268.356 181.351 267.939 182.585 267.106C183.851 266.272 184.485 265.089 184.485 263.556C184.485 262.222 183.985 261.106 182.985 260.206C182.018 259.306 180.801 258.822 179.335 258.756H176.785C176.151 258.756 175.635 258.606 175.235 258.306C174.835 257.972 174.635 257.572 174.635 257.106C174.635 256.639 174.835 256.256 175.235 255.956C175.635 255.656 176.151 255.506 176.785 255.506H179.335C180.568 255.472 181.568 255.056 182.335 254.256C183.101 253.456 183.485 252.472 183.485 251.306C183.485 250.106 182.951 249.122 181.885 248.356C180.851 247.589 179.451 247.206 177.685 247.206C176.051 247.206 174.685 247.472 173.585 248.006C172.485 248.539 171.601 249.222 170.935 250.056C170.568 250.456 170.135 250.706 169.635 250.806C169.168 250.872 168.718 250.772 168.285 250.506C167.851 250.272 167.601 249.906 167.535 249.406C167.501 248.906 167.651 248.439 167.985 248.006C169.051 246.772 170.401 245.739 172.035 244.906C173.701 244.072 175.568 243.656 177.635 243.656C179.501 243.656 181.151 243.989 182.585 244.656C184.051 245.289 185.201 246.172 186.035 247.306C186.868 248.406 187.285 249.639 187.285 251.006C187.285 252.406 186.835 253.639 185.935 254.706C185.068 255.739 183.935 256.489 182.535 256.956C184.235 257.289 185.618 258.072 186.685 259.306C187.751 260.539 188.285 261.989 188.285 263.656C188.285 265.222 187.818 266.622 186.885 267.856C185.985 269.089 184.735 270.072 183.135 270.806C181.568 271.506 179.785 271.856 177.785 271.856ZM206.868 271.656C204.302 271.656 202.002 271.056 199.968 269.856C197.935 268.622 196.318 266.956 195.118 264.856C193.952 262.756 193.368 260.389 193.368 257.756C193.368 255.089 193.968 252.706 195.168 250.606C196.402 248.506 198.068 246.856 200.168 245.656C202.268 244.422 204.635 243.806 207.268 243.806C209.902 243.806 212.252 244.422 214.318 245.656C216.418 246.856 218.068 248.506 219.268 250.606C220.502 252.706 221.135 255.089 221.168 257.756V269.506C221.168 270.072 220.985 270.539 220.618 270.906C220.252 271.239 219.785 271.406 219.218 271.406C218.652 271.406 218.185 271.239 217.818 270.906C217.452 270.539 217.268 270.072 217.268 269.506V266.456C216.135 268.056 214.668 269.322 212.868 270.256C211.068 271.189 209.068 271.656 206.868 271.656ZM207.268 268.156C209.202 268.156 210.918 267.706 212.418 266.806C213.952 265.906 215.152 264.672 216.018 263.106C216.918 261.506 217.368 259.722 217.368 257.756C217.368 255.756 216.918 253.972 216.018 252.406C215.152 250.839 213.952 249.606 212.418 248.706C210.918 247.772 209.202 247.306 207.268 247.306C205.368 247.306 203.652 247.772 202.118 248.706C200.585 249.606 199.368 250.839 198.468 252.406C197.568 253.972 197.118 255.756 197.118 257.756C197.118 259.722 197.568 261.506 198.468 263.106C199.368 264.672 200.585 265.906 202.118 266.806C203.652 267.706 205.368 268.156 207.268 268.156ZM240.556 271.706C238.19 271.706 236.073 271.222 234.206 270.256C232.34 269.256 230.856 267.806 229.756 265.906C228.69 264.006 228.156 261.689 228.156 258.956V245.956C228.156 245.422 228.34 244.972 228.706 244.606C229.073 244.239 229.523 244.056 230.056 244.056C230.623 244.056 231.09 244.239 231.456 244.606C231.823 244.972 232.006 245.422 232.006 245.956V258.956C232.006 262.022 232.856 264.306 234.556 265.806C236.256 267.306 238.39 268.056 240.956 268.056C242.59 268.056 244.056 267.739 245.356 267.106C246.69 266.472 247.74 265.606 248.506 264.506C249.273 263.406 249.656 262.156 249.656 260.756V245.956C249.656 245.389 249.823 244.939 250.156 244.606C250.523 244.239 250.99 244.056 251.556 244.056C252.123 244.056 252.59 244.239 252.956 244.606C253.323 244.939 253.506 245.389 253.506 245.956V269.456C253.506 270.056 253.323 270.539 252.956 270.906C252.59 271.239 252.123 271.406 251.556 271.406C250.99 271.406 250.523 271.239 250.156 270.906C249.823 270.539 249.656 270.056 249.656 269.456V267.756C248.556 268.989 247.223 269.956 245.656 270.656C244.09 271.356 242.39 271.706 240.556 271.706ZM241.106 240.506C239.473 240.506 238.006 240.239 236.706 239.706C235.406 239.139 234.373 238.372 233.606 237.406C232.873 236.439 232.506 235.356 232.506 234.156C232.506 233.622 232.673 233.172 233.006 232.806C233.373 232.439 233.806 232.256 234.306 232.256C234.84 232.256 235.273 232.439 235.606 232.806C235.94 233.172 236.106 233.672 236.106 234.306C236.106 235.239 236.59 235.989 237.556 236.556C238.523 237.122 239.706 237.406 241.106 237.406C242.54 237.406 243.723 237.122 244.656 236.556C245.623 235.989 246.106 235.239 246.106 234.306C246.106 233.672 246.273 233.172 246.606 232.806C246.973 232.439 247.406 232.256 247.906 232.256C248.44 232.256 248.873 232.439 249.206 232.806C249.54 233.172 249.706 233.622 249.706 234.156C249.706 235.356 249.323 236.439 248.556 237.406C247.823 238.372 246.806 239.139 245.506 239.706C244.206 240.239 242.74 240.506 241.106 240.506ZM264.394 271.406C263.827 271.406 263.361 271.239 262.994 270.906C262.661 270.539 262.494 270.056 262.494 269.456V246.006C262.494 245.406 262.661 244.939 262.994 244.606C263.361 244.239 263.827 244.056 264.394 244.056C264.961 244.056 265.411 244.239 265.744 244.606C266.111 244.939 266.294 245.406 266.294 246.006V255.906H283.944V246.006C283.944 245.406 284.127 244.939 284.494 244.606C284.861 244.239 285.327 244.056 285.894 244.056C286.461 244.056 286.911 244.239 287.244 244.606C287.577 244.939 287.744 245.406 287.744 246.006V269.456C287.744 270.056 287.577 270.539 287.244 270.906C286.911 271.239 286.461 271.406 285.894 271.406C285.327 271.406 284.861 271.239 284.494 270.906C284.127 270.539 283.944 270.056 283.944 269.456V259.356H266.294V269.456C266.294 270.056 266.111 270.539 265.744 270.906C265.411 271.239 264.961 271.406 264.394 271.406ZM309.123 271.656C306.423 271.656 304.023 271.072 301.923 269.906C299.856 268.706 298.223 267.056 297.023 264.956C295.856 262.856 295.273 260.456 295.273 257.756C295.273 255.022 295.823 252.622 296.923 250.556C298.056 248.456 299.606 246.806 301.573 245.606C303.539 244.406 305.806 243.806 308.373 243.806C310.906 243.806 313.106 244.389 314.973 245.556C316.873 246.689 318.339 248.272 319.373 250.306C320.406 252.339 320.923 254.656 320.923 257.256C320.923 257.789 320.756 258.222 320.423 258.556C320.089 258.856 319.656 259.006 319.123 259.006H298.923C299.123 260.806 299.673 262.406 300.573 263.806C301.473 265.172 302.656 266.256 304.123 267.056C305.589 267.822 307.256 268.206 309.123 268.206C310.323 268.206 311.523 268.006 312.723 267.606C313.956 267.172 314.939 266.639 315.673 266.006C316.039 265.706 316.456 265.556 316.923 265.556C317.389 265.522 317.789 265.639 318.123 265.906C318.556 266.306 318.773 266.739 318.773 267.206C318.806 267.672 318.623 268.072 318.223 268.406C317.123 269.339 315.723 270.122 314.023 270.756C312.323 271.356 310.689 271.656 309.123 271.656ZM308.373 247.256C305.806 247.256 303.689 248.056 302.023 249.656C300.356 251.222 299.356 253.272 299.023 255.806H317.323C317.056 253.272 316.123 251.222 314.523 249.656C312.956 248.056 310.906 247.256 308.373 247.256ZM329.386 283.106C328.786 283.106 328.302 282.922 327.936 282.556C327.602 282.222 327.436 281.756 327.436 281.156V257.556C327.469 254.956 328.086 252.622 329.286 250.556C330.519 248.456 332.169 246.806 334.236 245.606C336.336 244.406 338.686 243.806 341.286 243.806C343.952 243.806 346.336 244.422 348.436 245.656C350.536 246.856 352.186 248.506 353.386 250.606C354.619 252.706 355.236 255.089 355.236 257.756C355.236 260.389 354.636 262.756 353.436 264.856C352.269 266.956 350.669 268.622 348.636 269.856C346.602 271.056 344.302 271.656 341.736 271.656C339.502 271.656 337.469 271.189 335.636 270.256C333.836 269.289 332.386 268.022 331.286 266.456V281.156C331.286 281.756 331.102 282.222 330.736 282.556C330.402 282.922 329.952 283.106 329.386 283.106ZM341.286 268.156C343.219 268.156 344.952 267.706 346.486 266.806C348.019 265.906 349.219 264.672 350.086 263.106C350.986 261.506 351.436 259.722 351.436 257.756C351.436 255.756 350.986 253.972 350.086 252.406C349.219 250.839 348.019 249.606 346.486 248.706C344.952 247.772 343.219 247.306 341.286 247.306C339.386 247.306 337.669 247.772 336.136 248.706C334.602 249.606 333.402 250.839 332.536 252.406C331.669 253.972 331.236 255.756 331.236 257.756C331.236 259.722 331.669 261.506 332.536 263.106C333.402 264.672 334.602 265.906 336.136 266.806C337.669 267.706 339.386 268.156 341.286 268.156Z" fill="white"/>
</svg>
